assets/images/logo.svg

<svg width="832" height="210" viewBox="0 0 832 210" fill="none" xmlns="http://www.w3.org/2000/svg">
<path d="M9.85067 41.5607C0.494842 47.2664 -0.509842 56.9147 0.169818 61.204C0.188786 61.3237 0.199381 61.4357 0.199861 61.5569C0.383651 108.042 0.639813 201.727 0.19916 206.007C-0.215745 210.037 3.23851 210.277 5.33354 209.846C5.58713 209.794 5.81425 209.686 6.0253 209.537C26.4489 195.087 67.5571 166.09 71.0688 163.958C74.5985 161.816 75.6648 157.53 75.7567 155.655V4.33265C75.7567 -0.657932 72.1206 -0.33429 70.1416 0.505201C70.0237 0.555206 69.9178 0.616615 69.813 0.689926C53.6622 11.9828 19.3068 35.7939 9.85067 41.5607Z" fill="#0067FB"/>
<path opacity="0.9" d="M37.7547 42.4179C28.3364 48.3223 27.9744 58.4338 28.245 62.7412C28.5155 67.0486 28.6102 111.096 28.1722 115.47C27.7608 119.577 31.1799 119.827 33.2608 119.39C33.5186 119.335 33.7487 119.223 33.9614 119.069C54.2408 104.319 95.0492 74.7286 98.5356 72.5531C102.04 70.3662 103.099 65.9926 103.19 64.0791V4.42173C103.19 -0.669313 99.5834 -0.341817 97.6179 0.514056C97.4989 0.565868 97.3923 0.629431 97.287 0.705107C81.2508 12.2314 47.143 36.5323 37.7547 42.4179Z" fill="#016FFB"/>
<path opacity="0.9" d="M62.1051 42.4179C52.6868 48.3223 52.3248 58.4338 52.5954 62.7412C52.8659 67.0486 52.9606 111.096 52.5226 115.47C52.1112 119.577 55.5303 119.827 57.6112 119.39C57.869 119.335 58.0991 119.223 58.3118 119.069C78.5912 104.319 119.4 74.7286 122.886 72.5531C126.391 70.3662 127.449 65.9926 127.54 64.0791V4.42173C127.54 -0.669313 123.934 -0.341817 121.968 0.514056C121.849 0.565868 121.743 0.629431 121.637 0.705107C105.601 12.2314 71.4934 36.5323 62.1051 42.4179Z" fill="#0387FB"/>
<path opacity="0.9" d="M144.428 0.499158C146.393 -0.356715 150 -0.684112 150 4.40693V64.0641C149.909 65.9776 148.85 70.3512 145.346 72.538C142.688 74.1961 113.764 95.56 94.6198 109.321L75.7567 140.02V116.853C75.7014 116.499 75.7567 112.977 75.7567 112.545L75.4893 62.1881C75.4893 57.3423 75.1464 48.3075 84.5647 42.4031C93.9529 36.5175 128.061 12.2164 144.097 0.690025C144.202 0.614388 144.309 0.550953 144.428 0.499158Z" fill="#01A9FB"/>
<path d="M767.675 152.168V58.088H789.051C793.83 58.088 798.438 58.5573 802.875 59.496C807.398 60.4347 811.408 62.0133 814.907 64.232C818.406 66.4507 821.179 69.3947 823.227 73.064C825.275 76.7333 826.299 81.256 826.299 86.632C826.299 92.8613 824.848 98.28 821.947 102.888C819.046 107.496 814.651 111.037 808.763 113.512L831.163 152.168H814.651L795.707 116.584C794.256 116.669 792.464 116.755 790.331 116.84C788.283 116.84 786.576 116.84 785.211 116.84H781.627V152.168H767.675ZM781.627 105.192H790.715C795.408 105.192 799.163 104.595 801.979 103.4C804.88 102.205 807.099 100.712 808.635 98.92C810.171 97.0427 811.195 95.0373 811.707 92.904C812.304 90.6853 812.603 88.6373 812.603 86.76C812.603 82.5787 811.622 79.2933 809.659 76.904C807.782 74.4293 805.136 72.68 801.723 71.656C798.395 70.5467 794.555 69.992 790.203 69.992H781.627V105.192Z" fill="#3C3C3C"/>
<path d="M663.979 153.448C657.579 153.448 651.52 152.339 645.803 150.12C640.171 147.901 635.179 144.701 630.827 140.52C626.475 136.253 623.019 131.133 620.459 125.16C617.984 119.187 616.747 112.445 616.747 104.936C616.747 97.3413 617.984 90.5573 620.459 84.584C623.019 78.6107 626.475 73.5333 630.827 69.352C635.264 65.1707 640.299 62.0133 645.931 59.88C651.648 57.6613 657.664 56.552 663.979 56.552C670.294 56.552 676.267 57.6613 681.899 59.88C687.616 62.0133 692.651 65.1707 697.003 69.352C701.44 73.5333 704.896 78.6107 707.371 84.584C709.931 90.5573 711.211 97.3413 711.211 104.936C711.211 112.445 709.931 119.187 707.371 125.16C704.896 131.133 701.483 136.253 697.131 140.52C692.779 144.701 687.744 147.901 682.027 150.12C676.395 152.339 670.379 153.448 663.979 153.448ZM663.979 140.52C669.782 140.52 675.115 139.155 679.979 136.424C684.843 133.693 688.726 129.725 691.627 124.52C694.528 119.229 695.979 112.744 695.979 105.064C695.979 97.2987 694.528 90.8133 691.627 85.608C688.726 80.3173 684.843 76.3493 679.979 73.704C675.2 70.9733 669.867 69.608 663.979 69.608C658.091 69.608 652.715 70.9733 647.851 73.704C643.072 76.3493 639.232 80.3173 636.331 85.608C633.43 90.8133 631.979 97.2987 631.979 105.064C631.979 112.744 633.472 119.229 636.459 124.52C639.446 129.725 643.371 133.693 648.235 136.424C653.099 139.155 658.347 140.52 663.979 140.52Z" fill="#3C3C3C"/>
<path d="M545.044 152.168V58.088H559.38V152.168H545.044Z" fill="#3C3C3C"/>
<path d="M449.908 152.168L406.388 58.088H422.644L450.804 122.728L479.092 58.088H495.22L451.828 152.168H449.908Z" fill="#3C3C3C"/>
<path d="M334.609 57.96H336.017L381.329 152.168H364.817L356.753 133.736H313.617L305.553 152.168H289.553L334.609 57.96ZM335.249 85.224L329.617 98.024L319.377 120.808H351.121L341.009 98.152L335.505 85.224H335.249Z" fill="#3C3C3C"/>
<path d="M200 152.168V58.088H220.736C228.928 58.088 235.499 59.2827 240.448 61.672C245.397 64.0613 248.981 67.3893 251.2 71.656C253.419 75.8373 254.528 80.6587 254.528 86.12C254.528 96.104 251.627 103.827 245.824 109.288C240.021 114.664 231.232 117.352 219.456 117.352H214.464V152.168H200ZM214.464 104.68H219.84C225.472 104.68 229.739 103.784 232.64 101.992C235.541 100.2 237.504 97.9813 238.528 95.336C239.552 92.6907 240.064 90.1307 240.064 87.656C240.064 84.6693 239.509 81.896 238.4 79.336C237.291 76.776 235.371 74.6853 232.64 73.064C229.909 71.4427 226.069 70.632 221.12 70.632H214.464V104.68Z" fill="#3C3C3C"/>
</svg>

<svg xmlns="http://www.w3.org/2000/svg" width="832" height="210" fill="none" viewBox="0 0 832 210"><path fill="#0067fb" d="M9.85 41.56C.496 47.267-.51 56.916.17 61.205c.019.12.03.232.03.353.184 46.485.44 140.17 0 144.45-.416 4.03 3.039 4.27 5.134 3.839.253-.052.48-.16.691-.309 20.424-14.45 61.532-43.447 65.044-45.579 3.53-2.142 4.596-6.428 4.688-8.303V4.333c0-4.99-3.636-4.667-5.615-3.828-.118.05-.224.112-.329.185-16.15 11.293-50.506 35.104-59.962 40.87"/><path fill="#016ffb" d="M37.755 42.418c-9.419 5.904-9.78 16.016-9.51 20.323s.365 48.355-.073 52.729c-.411 4.107 3.008 4.357 5.089 3.92a1.8 1.8 0 0 0 .7-.321c20.28-14.75 61.088-44.34 64.575-46.516 3.504-2.187 4.563-6.56 4.654-8.474V4.422c0-5.091-3.607-4.764-5.572-3.908a1.8 1.8 0 0 0-.331.191C81.251 12.231 47.143 36.532 37.755 42.418" opacity=".9"/><path fill="#0387fb" d="M62.105 42.418c-9.418 5.904-9.78 16.016-9.51 20.323s.366 48.355-.072 52.729c-.412 4.107 3.007 4.357 5.088 3.92a1.8 1.8 0 0 0 .7-.321c20.28-14.75 61.089-44.34 64.575-46.516 3.505-2.187 4.563-6.56 4.654-8.474V4.422c0-5.091-3.606-4.764-5.572-3.908a1.8 1.8 0 0 0-.331.191c-16.036 11.526-50.144 35.827-59.532 41.713" opacity=".9"/><path fill="#01a9fb" d="M144.428.5C146.393-.358 150-.685 150 4.406v59.657c-.091 1.914-1.15 6.287-4.654 8.474-2.658 1.658-31.582 23.022-50.726 36.783L75.757 140.02v-23.167c-.056-.354 0-3.876 0-4.308l-.268-50.357c0-4.846-.343-13.88 9.076-19.785C93.953 36.518 128.06 12.216 144.097.69c.105-.076.212-.139.331-.19" opacity=".9"/><path fill="#3c3c3c" d="M767.675 152.168v-94.08h21.376q7.169 0 13.824 1.408 6.784 1.408 12.032 4.736t8.32 8.832q3.072 5.505 3.072 13.568 0 9.345-4.352 16.256-4.352 6.912-13.184 10.624l22.4 38.656h-16.512l-18.944-35.584q-2.177.128-5.376.256h-8.704v35.328zm13.952-46.976h9.088q7.04 0 11.264-1.792 4.352-1.792 6.656-4.48 2.304-2.816 3.072-6.016.896-3.328.896-6.144 0-6.272-2.944-9.856-2.816-3.712-7.936-5.248-4.992-1.665-11.52-1.664h-8.576zM663.979 153.448q-9.6 0-18.176-3.328a45.5 45.5 0 0 1-14.976-9.6q-6.528-6.4-10.368-15.36-3.712-8.96-3.712-20.224 0-11.393 3.712-20.352 3.84-8.96 10.368-15.232 6.656-6.272 15.104-9.472 8.575-3.328 18.048-3.328t17.92 3.328q8.576 3.2 15.104 9.472 6.655 6.272 10.368 15.232 3.84 8.96 3.84 20.352 0 11.264-3.84 20.224-3.712 8.96-10.24 15.36-6.528 6.272-15.104 9.6-8.448 3.328-18.048 3.328m0-12.928q8.704 0 16-4.096t11.648-11.904q4.352-7.936 4.352-19.456 0-11.647-4.352-19.456-4.352-7.936-11.648-11.904-7.168-4.096-16-4.096t-16.128 4.096q-7.169 3.967-11.52 11.904-4.352 7.807-4.352 19.456 0 11.52 4.48 19.456 4.48 7.807 11.776 11.904t15.744 4.096M545.044 152.168v-94.08h14.336v94.08zM449.908 152.168l-43.52-94.08h16.256l28.16 64.64 28.288-64.64h16.128l-43.392 94.08zM334.609 57.96h1.408l45.312 94.208h-16.512l-8.064-18.432h-43.136l-8.064 18.432h-16zm.64 27.264-5.632 12.8-10.24 22.784h31.744l-10.112-22.656-5.504-12.928zM200 152.168v-94.08h20.736q12.288 0 19.712 3.584t10.752 9.984q3.328 6.272 3.328 14.464 0 14.976-8.704 23.168-8.704 8.064-26.368 8.064h-4.992v34.816zm14.464-47.488h5.376q8.448 0 12.8-2.688 4.352-2.687 5.888-6.656t1.536-7.68q0-4.48-1.664-8.32t-5.76-6.272-11.52-2.432h-6.656z"/></svg>
